public/icons/filter.svg

<svg width="17.456" height="16.205" fill="none" version="1.1" viewBox="0 0 17.456 16.205" xmlns="http://www.w3.org/2000/svg">
 <defs>
  <filter id="filter1597" x="-.038135" y="-.12655" width="1.0763" height="1.2531" style="color-interpolation-filters:sRGB">
   <feGaussianBlur stdDeviation="0.2421292"/>
  </filter>
  <filter id="filter1635" x="-.03752" y="-.13384" width="1.075" height="1.2677" style="color-interpolation-filters:sRGB">
   <feGaussianBlur stdDeviation="0.25385366"/>
  </filter>
  <filter id="filter1651" x="-.03745" y="-.13473" width="1.0749" height="1.2695" style="color-interpolation-filters:sRGB">
   <feGaussianBlur stdDeviation="0.25338344"/>
  </filter>
 </defs>
 <g transform="translate(.609 -.41908)" clip-rule="evenodd" fill-rule="evenodd">
  <path d="m0.8119 14.316h7.3883c0.28292 1.0024 1.2495 1.7005 2.3545 1.7005 1.105 0 2.0716-0.6981 2.3545-1.7005h2.5169c0.44841 0 0.8119-0.3411 0.8119-0.7619s-0.36348-0.7619-0.8119-0.7619h-2.6793c-0.40696-0.7885-1.2585-1.2894-2.1921-1.2894-0.93365 0-1.7852 0.5009-2.1921 1.2894h-7.5507c-0.4484 0-0.8119 0.3411-0.8119 0.7619s0.3635 0.7619 0.8119 0.7619zm9.7428-1.3105c0.44846 0 0.81194 0.3412 0.81194 0.7619 0 0.4208-0.36348 0.7619-0.81194 0.7619-0.4484 0-0.8119-0.3411-0.8119-0.7619 0-0.4207 0.36349-0.7619 0.8119-0.7619z" fill="#e7235d" style="fill:#1a1a1a;filter:url(#filter1651);stroke-width:1.0323"/>
  <g fill="#E7235D">
   <path d="m0.8119 9.1924h1.6969c0.27737 1.0096 1.2476 1.7151 2.3586 1.7151 1.111 0 2.0812-0.7055 2.3586-1.7151h8.2002c0.44841 0 0.8119-0.34112 0.8119-0.76191 0-0.42078-0.36348-0.7619-0.8119-0.7619h-8.3626c-0.40154-0.8016-1.2604-1.3133-2.2043-1.3133s-1.8028 0.51174-2.2043 1.3133c-0.072867-0.0072-0.14635-0.0072-0.21922 0h-1.6238c-0.4484 0-0.8119 0.34112-0.8119 0.7619 0 0.42079 0.3635 0.76191 0.8119 0.76191zm4.0595-1.3105c0.4484 0 0.81189 0.34112 0.81189 0.76191s-0.36349 0.7619-0.81189 0.7619-0.81191-0.34111-0.81191-0.7619 0.3635-0.76191 0.81191-0.76191z" style="fill:#1a1a1a;filter:url(#filter1635);stroke-width:1.0323"/>
   <path d="m1.2619 3.8618h6.1638c0.25486 1.0169 1.1688 1.73 2.2172 1.73s1.9622-0.71316 2.2171-1.73h3.1162c0.4208 0 0.7619-0.34111 0.7619-0.7619s-0.3411-0.76191-0.7619-0.76191h-3.0476c-0.0684-0.00725-0.1374-0.00725-0.2057 0-0.3714-0.81499-1.1844-1.338-2.08-1.338-0.8956 0-1.7087 0.52304-2.08 1.338-0.06838-0.00725-0.13734-0.00725-0.20572 0h-6.0952c-0.42079 0-0.7619 0.34112-0.7619 0.76191s0.34112 0.7619 0.7619 0.7619zm8.381-1.3105c0.42079 0 0.7619 0.34111 0.7619 0.7619s-0.34111 0.76191-0.7619 0.76191-0.76191-0.34112-0.76191-0.76191 0.34112-0.7619 0.76191-0.7619z" style="fill:#1a1a1a;filter:url(#filter1597)"/>
   <path d="m0.7619 3.5962h6.1638c0.25486 1.0169 1.1688 1.73 2.2172 1.73s1.9622-0.71316 2.2171-1.73h3.1162c0.4208 0 0.7619-0.34111 0.7619-0.7619s-0.3411-0.76191-0.7619-0.76191h-3.0476c-0.0684-0.00725-0.1374-0.00725-0.2057 0-0.3714-0.81499-1.1844-1.338-2.08-1.338-0.8956 0-1.7087 0.52304-2.08 1.338-0.06838-0.00725-0.13734-0.00725-0.20572 0h-6.0952c-0.42079 0-0.7619 0.34112-0.7619 0.76191s0.34112 0.7619 0.7619 0.7619zm8.381-1.3105c0.42079 0 0.7619 0.34111 0.7619 0.7619s-0.34111 0.76191-0.7619 0.76191-0.76191-0.34112-0.76191-0.76191 0.34112-0.7619 0.76191-0.7619z" style="fill:#fff"/>
   <path d="m0.7619 8.9294h1.5924c0.26029 1.0096 1.1708 1.7151 2.2133 1.7151s1.953-0.7055 2.2133-1.7151h7.6952c0.4208 0 0.7619-0.34112 0.7619-0.76191 0-0.42078-0.3411-0.7619-0.7619-0.7619h-7.8476c-0.37681-0.8016-1.1828-1.3133-2.0686-1.3133s-1.6918 0.51174-2.0686 1.3133c-0.06838-0.00725-0.13734-0.00725-0.20572 0h-1.5238c-0.42079 0-0.7619 0.34112-0.7619 0.7619 0 0.42079 0.34112 0.76191 0.7619 0.76191zm3.8095-1.3105c0.42079 0 0.7619 0.34112 0.7619 0.76191s-0.34111 0.7619-0.7619 0.7619-0.76191-0.34111-0.76191-0.7619 0.34112-0.76191 0.76191-0.76191z" style="fill:#fff"/>
   <path d="m0.7619 14.263h6.9333c0.2655 1.0024 1.1726 1.7005 2.2095 1.7005 1.0369 0 1.944-0.6981 2.2095-1.7005h2.3619c0.4208 0 0.7619-0.3411 0.7619-0.7619s-0.3411-0.7619-0.7619-0.7619h-2.5143c-0.3819-0.7885-1.181-1.2894-2.0571-1.2894-0.87616 0-1.6752 0.5009-2.0571 1.2894h-7.0857c-0.42079 0-0.7619 0.3411-0.7619 0.7619s0.34112 0.7619 0.7619 0.7619zm9.1429-1.3105c0.42084 0 0.76194 0.3412 0.76194 0.7619 0 0.4208-0.3411 0.7619-0.76194 0.7619-0.42079 0-0.7619-0.3411-0.7619-0.7619 0-0.4207 0.34111-0.7619 0.7619-0.7619z" style="fill:#fff"/>
  </g>
 </g>
</svg>

<svg width="16" height="16" viewBox="0 0 16 16" fill="none" xmlns="http://www.w3.org/2000/svg">
<path fill-rule="evenodd" clip-rule="evenodd" d="M0.761905 3.59622H6.85714H6.92571C7.18057 4.61311 8.09452 5.32627 9.14286 5.32627C10.1912 5.32627 11.1051 4.61311 11.36 3.59622H11.4286H14.4762C14.897 3.59622 15.2381 3.25511 15.2381 2.83432C15.2381 2.41353 14.897 2.07241 14.4762 2.07241H11.4286C11.3602 2.06516 11.2912 2.06516 11.2229 2.07241C10.8515 1.25742 10.0385 0.734375 9.14286 0.734375C8.24726 0.734375 7.43418 1.25742 7.06286 2.07241C6.99448 2.06516 6.92552 2.06516 6.85714 2.07241H0.761905C0.341116 2.07241 0 2.41353 0 2.83432C0 3.25511 0.341116 3.59622 0.761905 3.59622ZM9.14286 2.28575C9.56365 2.28575 9.90476 2.62686 9.90476 3.04765C9.90476 3.46844 9.56365 3.80956 9.14286 3.80956C8.72207 3.80956 8.38095 3.46844 8.38095 3.04765C8.38095 2.62686 8.72207 2.28575 9.14286 2.28575Z" fill="#E7235D"/>
<path fill-rule="evenodd" clip-rule="evenodd" d="M0.761905 8.92944H2.28571H2.35429C2.61458 9.939 3.52504 10.6445 4.56762 10.6445C5.6102 10.6445 6.52066 9.939 6.78095 8.92944H14.4762C14.897 8.92944 15.2381 8.58832 15.2381 8.16753C15.2381 7.74675 14.897 7.40563 14.4762 7.40563H6.62857C6.25176 6.60403 5.44575 6.09229 4.56 6.09229C3.67425 6.09229 2.86824 6.60403 2.49143 7.40563C2.42305 7.39838 2.35409 7.39838 2.28571 7.40563H0.761905C0.341116 7.40563 0 7.74675 0 8.16753C0 8.58832 0.341116 8.92944 0.761905 8.92944ZM4.57143 7.61896C4.99222 7.61896 5.33333 7.96008 5.33333 8.38087C5.33333 8.80166 4.99222 9.14277 4.57143 9.14277C4.15064 9.14277 3.80952 8.80166 3.80952 8.38087C3.80952 7.96008 4.15064 7.61896 4.57143 7.61896Z" fill="#E7235D"/>
<path fill-rule="evenodd" clip-rule="evenodd" d="M0.761905 14.2629H7.69524C7.96074 15.2653 8.86779 15.9634 9.90476 15.9634C10.9417 15.9634 11.8488 15.2653 12.1143 14.2629H14.4762C14.897 14.2629 15.2381 13.9218 15.2381 13.501C15.2381 13.0802 14.897 12.7391 14.4762 12.7391H11.9619C11.58 11.9506 10.7809 11.4497 9.90476 11.4497C9.0286 11.4497 8.22953 11.9506 7.84762 12.7391H0.761905C0.341116 12.7391 0 13.0802 0 13.501C0 13.9218 0.341116 14.2629 0.761905 14.2629ZM9.90476 12.9524C10.3256 12.9524 10.6667 13.2936 10.6667 13.7143C10.6667 14.1351 10.3256 14.4762 9.90476 14.4762C9.48397 14.4762 9.14286 14.1351 9.14286 13.7143C9.14286 13.2936 9.48397 12.9524 9.90476 12.9524Z" fill="#E7235D"/>
</svg>
